lib/flags/s/312.svg

<svg xmlns="http://www.w3.org/2000/svg" fill="none" viewBox="0 0 16 12"><path fill="#002488" d="M0 0V4H16V0L0 0Z"/><path fill="#DA121A" d="M0.000335693 4V12H16.0003V4L0.000335693 4Z"/><path fill="#FCDD09" d="M2.7742.566697C2.58158.884349 2.5586 1.13844 2.69006 1.57719 2.75336 1.78194 2.82289 2.0877 2.85211 2.25345 2.89106 2.48745 2.88698 2.50969 2.89245 2.56057 2.94114 2.56057 3.05179 2.56076 3.10296 2.56045 3.11031 2.47944 3.11626 2.38593 3.13354 2.25734 3.15368 2.10742 3.21341 1.79385 3.27766 1.57606 3.40604 1.14084 3.39744.873822 3.19781.571572 3.12477.459446 3.02739.366821 2.98357.366821 2.93975.366821 2.84061.452429 2.7742.566697zM3.19391 2.35271C3.17737 2.43652 3.17334 2.46611 3.16504 2.56058 3.22406 2.56082 3.24725 2.56122 3.30479 2.56087 3.31738 2.49733 3.32645 2.46378 3.35421 2.37358 3.46424 2.02472 3.78833 1.88471 3.77372 2.21133 3.76885 2.30152 3.73084 2.35188 3.68852 2.40023 3.74083 2.38717 3.85192 2.33526 3.942 2.28407 4.44352 1.98182 4.24602 1.24121 3.72016 1.46546 3.44749 1.58246 3.2835 1.90635 3.19391 2.35271zM2.60596 2.71156C2.82602 2.71314 3.20634 2.71599 3.38901 2.7144 3.38923 2.63816 3.38991 2.67707 3.39036 2.61545 3.25587 2.61363 2.7409 2.61664 2.607 2.61664 2.60731 2.6565 2.60669 2.6758 2.60596 2.71155L2.60596 2.71156zM2.46744 3.08199C2.46744 3.08199 2.57706 3.09433 2.67929 3.08686 2.78152 3.0794 2.83824 3.06663 2.89866 3.03724 2.88225 3.15921 2.88131 3.27699 2.88131 3.27699 2.89618 3.43395 2.913 3.47412 2.947 3.55051 2.99312 3.61424 3.01995 3.61459 3.05386 3.5473 3.09051 3.47195 3.11463 3.39447 3.12229 3.27626 3.11963 3.18766 3.11468 3.14706 3.09372 3.03876 3.16445 3.06941 3.20913 3.07735 3.31466 3.08686 3.42265 3.0966 3.5219 3.09183 3.5219 3.09183 3.5219 3.09183 3.37603 3.01853 3.31183 2.92864 3.24846 2.83991 3.26197 2.855 3.21589 2.74069 3.1599 2.73804 2.876 2.74065 2.78592 2.74065 2.73658 2.84486 2.73162 2.86662 2.67068 2.93238 2.59136 3.01799 2.46744 3.08199 2.46744 3.08199zM2.26982 1.46534C2.54249 1.58234 2.70649 1.90623 2.79607 2.35259 2.81262 2.4364 2.81665 2.46599 2.82495 2.56046 2.76593 2.56069 2.74273 2.5611 2.6852 2.56075 2.67261 2.4972 2.66354 2.46365 2.63578 2.37345 2.52574 2.0246 2.20166 1.88459 2.21626 2.21121 2.22113 2.3014 2.25915 2.35176 2.30147 2.40011 2.24916 2.38705 2.13806 2.33514 2.04798 2.28395 1.54647 1.9817 1.74396 1.24109 2.26982 1.46534V1.46534zM7.81421.566697C7.62159.884349 7.5986 1.13844 7.73007 1.57719 7.79337 1.78194 7.8629 2.0877 7.89211 2.25345 7.93107 2.48745 7.92699 2.50969 7.93246 2.56057 7.98115 2.56057 8.0918 2.56076 8.14297 2.56045 8.15032 2.47944 8.15627 2.38593 8.17354 2.25734 8.19368 2.10742 8.25342 1.79385 8.31766 1.57606 8.44605 1.14084 8.43745.873822 8.23782.571572 8.16478.459446 8.0674.366821 8.02358.366821 7.97976.366821 7.88062.452429 7.81421.566697zM8.76017 1.46546C8.4875 1.58246 8.32351 1.90635 8.23392 2.35271 8.21738 2.43652 8.21334 2.46611 8.20505 2.56058 8.26407 2.56082 8.28726 2.56122 8.34479 2.56087 8.35739 2.49733 8.36646 2.46378 8.39421 2.37358 8.50425 2.02472 8.82834 1.88471 8.81373 2.21133 8.80886 2.30152 8.77085 2.35188 8.72853 2.40023 8.78084 2.38717 8.89193 2.33526 8.98201 2.28407 9.48353 1.98182 9.28603 1.24121 8.76017 1.46546V1.46546zM7.64597 2.71156C7.86602 2.71314 8.24635 2.71599 8.42902 2.7144 8.42924 2.63816 8.42992 2.67707 8.43037 2.61545 8.29588 2.61363 7.78091 2.61664 7.64701 2.61664 7.64731 2.6565 7.6467 2.6758 7.64597 2.71155L7.64597 2.71156zM7.71069 2.93238C7.63136 3.01799 7.50745 3.08199 7.50745 3.08199 7.50745 3.08199 7.61707 3.09433 7.7193 3.08686 7.82152 3.0794 7.87825 3.06663 7.93867 3.03724 7.92226 3.15921 7.92132 3.27699 7.92132 3.27699 7.93619 3.43395 7.95301 3.47412 7.98701 3.55051 8.03313 3.61424 8.05996 3.61459 8.09387 3.5473 8.13052 3.47195 8.15464 3.39447 8.1623 3.27626 8.15963 3.18766 8.15469 3.14706 8.13373 3.03876 8.20446 3.06941 8.24914 3.07735 8.35467 3.08686 8.46265 3.0966 8.56191 3.09183 8.56191 3.09183 8.56191 3.09183 8.41604 3.01853 8.35184 2.92864 8.28847 2.83991 8.30198 2.855 8.2559 2.74069 8.1999 2.73804 7.916 2.74065 7.82593 2.74065 7.77659 2.84486 7.77163 2.86662 7.71069 2.93238V2.93238zM7.30983 1.46534C7.5825 1.58234 7.7465 1.90623 7.83608 2.35259 7.85263 2.4364 7.85666 2.46599 7.86496 2.56046 7.80594 2.56069 7.78274 2.5611 7.72521 2.56075 7.71261 2.4972 7.70355 2.46365 7.67579 2.37345 7.56575 2.0246 7.24166 1.88459 7.25627 2.21121 7.26114 2.3014 7.29916 2.35176 7.34147 2.40011 7.28916 2.38705 7.17807 2.33514 7.08799 2.28395 6.58648 1.9817 6.78397 1.24109 7.30983 1.46534V1.46534zM12.8542.566697C12.6616.884349 12.6386 1.13844 12.77 1.57719 12.8333 1.78194 12.9029 2.0877 12.9321 2.25345 12.971 2.48745 12.967 2.50969 12.9724 2.56057 13.0211 2.56057 13.1318 2.56076 13.1829 2.56045 13.1903 2.47944 13.1962 2.38593 13.2135 2.25734 13.2337 2.10742 13.2934 1.79385 13.3576 1.57606 13.486 1.14084 13.4774.873822 13.2778.571572 13.2048.459446 13.1074.366821 13.0636.366821 13.0197.366821 12.9206.452429 12.8542.566697zM13.8001 1.46546C13.5275 1.58246 13.3635 1.90635 13.2739 2.35271 13.2574 2.43652 13.2533 2.46611 13.245 2.56058 13.304 2.56082 13.3272 2.56122 13.3848 2.56087 13.3974 2.49733 13.4064 2.46378 13.4342 2.37358 13.5442 2.02472 13.8683 1.88471 13.8537 2.21133 13.8488 2.30152 13.8108 2.35188 13.7685 2.40023 13.8208 2.38717 13.9319 2.33526 14.022 2.28407 14.5235 1.98182 14.326 1.24121 13.8001 1.46546V1.46546zM12.6859 2.71156C12.906 2.71314 13.2863 2.71599 13.469 2.7144 13.4692 2.63816 13.4699 2.67707 13.4703 2.61545 13.3359 2.61363 12.8209 2.61664 12.687 2.61664 12.6873 2.6565 12.6867 2.6758 12.6859 2.71155L12.6859 2.71156zM12.7507 2.93238C12.6713 3.01799 12.5474 3.08199 12.5474 3.08199 12.5474 3.08199 12.657 3.09433 12.7593 3.08686 12.8615 3.0794 12.9182 3.06663 12.9786 3.03724 12.9622 3.15921 12.9613 3.27699 12.9613 3.27699 12.9762 3.43395 12.993 3.47412 13.027 3.55051 13.0731 3.61424 13.0999 3.61459 13.1338 3.5473 13.1705 3.47195 13.1946 3.39447 13.2023 3.27626 13.1996 3.18766 13.1947 3.14706 13.1737 3.03876 13.2444 3.06941 13.2891 3.07735 13.3946 3.08686 13.5026 3.0966 13.6019 3.09183 13.6019 3.09183 13.6019 3.09183 13.456 3.01853 13.3918 2.92864 13.3284 2.83991 13.342 2.855 13.2959 2.74069 13.2399 2.73804 12.956 2.74065 12.8659 2.74065 12.8166 2.84486 12.8116 2.86662 12.7507 2.93238V2.93238zM12.3498 1.46534C12.6225 1.58234 12.7865 1.90623 12.8761 2.35259 12.8926 2.4364 12.8966 2.46599 12.9049 2.56046 12.8459 2.56069 12.8227 2.5611 12.7652 2.56075 12.7526 2.4972 12.7435 2.46365 12.7158 2.37345 12.6057 2.0246 12.2816 1.88459 12.2962 2.21121 12.3011 2.3014 12.3391 2.35176 12.3815 2.40011 12.3291 2.38705 12.218 2.33514 12.128 2.28395 11.6265 1.9817 11.8239 1.24109 12.3498 1.46534V1.46534z"/><path fill="green" d="M5.69458 6.61678C5.8003 6.66613 5.93529 6.70502 6.00336 6.70731 6.08381 6.71002 6.06246 6.69023 5.9123 6.63175 5.79477 6.58582 5.6542 6.50859 5.5918 6.46071 5.47994 6.36919 5.47994 6.36919 5.49167 6.4497 5.49836 6.49571 5.58268 6.56723 5.69458 6.61678zM3.25702 6.47418C3.17424 6.53755 3.17911 6.54243 3.35927 6.51318 3.46639 6.49855 3.6222 6.4693 3.7001 6.4498 3.8267 6.41568 3.81696 6.4108 3.59785 6.40593 3.45178 6.40105 3.31544 6.4303 3.25702 6.47418z"/><path fill="green" d="M2.04737 5.96163C2.85076 6.10788 4.46243 6.64901 4.36505 6.74163 4.34071 6.76601 3.88788 6.65388 3.82458 6.61001 3.80024 6.58563 3.56165 6.59538 3.29872 6.62951 2.80694 6.68313 2.72417 6.72701 2.73391 6.92688 2.73878 7.02438 2.73878 7.02438 2.76312 6.92688 2.80694 6.74651 2.87998 6.70751 3.15752 6.70751 3.4594 6.70751 4.28715 6.82938 4.65233 6.92688 5.13924 7.06338 5.15384 7.06338 4.99316 6.97563 4.78379 6.85863 4.4673 6.64413 4.40887 6.58076 4.30175 6.45888 2.35899 5.92263 2.07658 5.93238 1.94511 5.94213 1.94025 5.94213 2.04737 5.96163zM4.89857 6.5222C4.93752 6.59045 5.31731 6.78057 5.34653 6.75132 5.36113 6.7367 5.31731 6.6977 5.25888 6.66357 5.19558 6.62945 5.11281 6.57582 5.07873 6.53682 5.00082 6.4637 4.85475 6.44907 4.89857 6.5222z"/><path fill="green" d="M4.92787 6.98533C4.96682 7.05358 5.34661 7.24371 5.37582 7.21446 5.39043 7.19983 5.34661 7.16083 5.28818 7.12671 5.22488 7.09258 5.14211 7.03896 5.10802 6.99996 5.03012 6.92683 4.88405 6.91221 4.92787 6.98533zM4.38352 6.40499C4.39052 6.39821 4.50008 6.43461 4.63005 6.48515 4.76003 6.53568 4.92792 6.58344 5.00015 6.58815 5.12746 6.59382 5.57826 6.80856 5.57392 6.8602 5.57308 6.90845 4.89145 6.70002 4.65253 6.57863 4.36576 6.43571 4.359 6.42869 4.38352 6.40499z"/><path fill="green" d="M5.19001 6.76121C5.09917 6.79636 5.00783 6.85993 4.97944 6.90541 4.9459 6.95915 4.97429 6.95967 5.09144 6.90075 5.18331 6.85475 5.31595 6.81701 5.38872 6.8108 5.52498 6.80407 5.52498 6.80407 5.43826 6.74982 5.38871 6.71882 5.28342 6.72193 5.19001 6.76121zM2.9113 5.11823C3.06225 5.40585 3.67575 6.06885 4.01659 6.32236 4.1091 6.39061 4.27465 6.45886 4.3769 6.47348L4.5668 6.50273 4.42559 6.34673C4.19674 6.09811 3.84617 5.62035 3.73418 5.41073 3.61245 5.1816 3.59785 5.2401 3.7001 5.5326 3.73905 5.6496 3.89486 5.8836 4.0458 6.04936 4.19674 6.21998 4.29413 6.36136 4.26978 6.36136 4.20648 6.36136 3.79748 5.87873 3.50533 5.45948 3.18884 5.00123 3.17424 4.9866 3.26188 5.2401 3.3057 5.36198 3.40308 5.54235 3.48586 5.63985 3.56376 5.74223 3.61245 5.8251 3.58811 5.8251 3.53942 5.8251 3.32518 5.58135 3.05738 5.23035 2.98434 5.12798 2.88209 4.99635 2.83827 4.93785 2.78958 4.87448 2.82366 4.95735 2.9113 5.11823zM10.2741 8.88293C10.4323 8.95153 11.2526 9.15866 11.833 9.32884 12.4134 9.49902 13.092 9.69493 13.2422 9.71604 13.4569 9.24751 13.0662 10.1239 13.2892 9.59273 12.9993 9.51885 11.8567 9.24969 11.3982 9.11777 11.0029 9.00696 10.4421 8.8341 10.2985 8.80244 10.1549 8.77078 10.1529 8.83016 10.2741 8.88293z"/><path fill="green" d="M10.3744 8.76135C10.5349 8.82438 11.3619 9.00272 11.9479 9.15252 12.5339 9.30231 13.2189 9.4744 13.3697 9.49024 13.568 9.01449 13.208 9.90398 13.4124 9.36537 13.1201 9.30166 11.9688 9.07259 11.506 8.95677 11.1071 8.85984 10.5406 8.70668 10.396 8.68006 10.2514 8.65343 10.2515 8.71285 10.3744 8.76135zM10.1473 8.97135C10.3016 9.04814 11.11 9.29797 11.6807 9.49833 12.2514 9.69869 12.9189 9.9299 13.0678 9.95885 13.3067 9.5022 12.8707 10.3569 13.1211 9.83816 12.8355 9.7492 11.7085 9.42054 11.2575 9.26477 10.8686 9.13339 10.3176 8.93139 10.1759 8.89225 10.0341 8.8531 10.029 8.9123 10.1473 8.97135z"/><path fill="green" d="M10.0489 9.07111C10.199 9.15588 10.9932 9.44772 11.5526 9.67771C12.1121 9.9077 12.7665 10.1736 12.9137 10.2103C13.1761 9.76678 12.6961 10.5975 12.9733 10.0926C12.6927 9.98875 11.5845 9.60149 11.1422 9.4223C10.7607 9.27072 10.221 9.04013 10.0815 8.99361C9.94199 8.94709 9.93383 9.00594 10.0489 9.07111Z"/><path fill="green" d="M9.95612 9.19692C10.1032 9.28688 10.8867 9.6063 11.4378 9.8557C11.9889 10.1051 12.6337 10.3937 12.7795 10.4355C13.0572 10.0014 12.5485 10.8148 12.8431 10.3199C12.5664 10.2064 11.4723 9.78063 11.0366 9.5861C10.6605 9.42128 10.1293 9.17197 9.99144 9.1206C9.85362 9.06924 9.84342 9.12777 9.95612 9.19692Z"/><path fill="#FCDD09" d="M8.31358 10.4606C8.53966 10.6182 8.78754 10.583 8.69165 10.3674L8.63571 10.2416L8.81337 10.319C9.06723 10.4262 9.30243 10.3402 9.1638 10.1492L9.08295 10.0378L9.27283 10.0766C9.5434 10.1286 9.75557 9.99553 9.58034 9.83754L9.47812 9.74538L9.6719 9.74381C9.94736 9.73837 10.1273 9.56412 9.92307 9.44607L9.80393 9.37718L9.99317 9.33534C10.2615 9.2726 10.4012 9.06466 10.177 8.99171L10.0461 8.94922L10.2225 8.86886C10.4719 8.75167 10.5655 8.51917 10.331 8.49451L10.1942 8.48016L10.3501 8.36481C10.5697 8.19831 10.6129 7.95136 10.3784 7.97608L10.2417 7.99044L10.3701 7.84518C10.5504 7.6366 10.5414 7.38611 10.3171 7.45906L10.1863 7.50158L10.2818 7.3328C10.4148 7.09123 10.354 6.84812 10.1498 6.96611L10.0306 7.03497L10.089 6.84997C10.169 6.58602 10.059 6.3608 9.88377 6.51878L9.78155 6.61095L9.80025 6.41786C9.82358 6.14296 9.66929 5.9456 9.53069 6.1366L9.44985 6.24804L9.42805 6.05525C9.39381 5.78159 9.20187 5.62059 9.10595 5.83628L9.05001 5.96214L8.98863 5.77808C8.8983 5.51751 8.67716 5.39999 8.62812 5.63092L8.59954 5.76566L8.50128 5.59846C8.35881 5.3623 8.11809 5.2935 8.11809 5.52956V5.66726L7.98725 5.52415C7.79891 5.32292 7.5491 5.30561 7.59813 5.5366L7.62669 5.67129L7.46902 5.55852C7.24294 5.40085 6.99506 5.43595 7.09092 5.65164L7.14686 5.7775L6.96921 5.70003C6.71534 5.59286 6.48014 5.67885 6.6188 5.86985L6.69962 5.98123L6.50977 5.94243C6.2392 5.89045 6.02703 6.0235 6.20226 6.18145L6.30448 6.27361L6.1107 6.27518C5.83525 6.28065 5.65532 6.45496 5.85954 6.57301L5.97864 6.64187L5.78944 6.68371C5.52114 6.7464 5.38137 6.95434 5.60564 7.02729L5.73647 7.06987L5.56007 7.15019C5.31066 7.26741 5.21707 7.49982 5.45159 7.52451L5.58838 7.53893L5.43253 7.65421C5.21289 7.82077 5.16963 8.06766 5.40415 8.04297L5.54094 8.02862L5.41244 8.17381C5.23221 8.38246 5.2412 8.63295 5.46547 8.56L5.5963 8.51745L5.50078 8.68628C5.3678 8.92782 5.4286 9.17093 5.63281 9.05291L5.75195 8.98402L5.69358 9.16903C5.61365 9.43304 5.72361 9.65819 5.89884 9.50021L6.00105 9.40805L5.98236 9.60123C5.95902 9.87603 6.11331 10.0734 6.25191 9.8824L6.33276 9.77102L6.35459 9.96383C6.38883 10.2375 6.58073 10.3984 6.67665 10.1827L6.73257 10.057L6.79394 10.2409C6.88428 10.5016 7.10541 10.619 7.15445 10.3881L7.18304 10.2534L7.28129 10.4206C7.42376 10.6567 7.66449 10.7256 7.66449 10.4895V10.3518L7.79532 10.4949C7.98366 10.6962 8.23345 10.7134 8.18444 10.4825L8.15585 10.3478L8.31358 10.4606Z"/></svg>

<svg xmlns="http://www.w3.org/2000/svg" fill="none" viewBox="0 0 16 12"><path fill="#002488" d="M0 0v4h16V0H0z"/><path fill="#DA121A" d="M0 4v8h16V4H0z"/><path fill="#FCDD09" d="M2.774.567c-.193.317-.216.571-.084 1.01.063.205.133.51.162.676.039.234.035.257.04.308h.21c.008-.082.014-.175.031-.304.02-.15.08-.463.145-.68.128-.436.12-.703-.08-1.005-.073-.113-.17-.205-.215-.205-.043 0-.142.085-.209.2zm.42 1.786c-.017.084-.02.113-.029.208h.14a1.57 1.57 0 01.05-.187c.11-.35.433-.49.419-.163a.287.287 0 01-.085.19c.052-.014.163-.066.253-.117.502-.302.304-1.043-.222-.819-.273.117-.437.441-.526.888zm-.588.359c.22.001.6.004.783.002l.001-.099c-.134-.001-.65.002-.783.002l-.001.095zm-.139.37s.11.012.212.005a.55.55 0 00.22-.05c-.017.122-.018.24-.018.24a.685.685 0 00.066.274c.046.063.073.064.107-.004a.676.676 0 00.068-.27 1.204 1.204 0 00-.028-.238c.07.03.115.038.22.048.109.01.208.005.208.005s-.146-.073-.21-.163c-.064-.089-.05-.074-.096-.188-.056-.003-.34 0-.43 0-.05.104-.054.126-.115.191a.861.861 0 01-.204.15zM2.27 1.465c.272.117.436.441.526.888.017.083.02.113.029.207h-.14a1.57 1.57 0 00-.05-.187c-.11-.348-.433-.488-.419-.162.005.09.043.14.085.19a1.347 1.347 0 01-.253-.117c-.502-.302-.304-1.043.222-.819zM7.814.567c-.192.317-.215.571-.084 1.01.063.205.133.51.162.676.039.234.035.257.04.308h.21c.008-.082.014-.175.031-.304.02-.15.08-.463.145-.68.128-.436.12-.703-.08-1.005-.073-.113-.17-.205-.214-.205-.044 0-.143.085-.21.2zm.946.898c-.272.117-.436.441-.526.888-.017.084-.02.113-.029.208h.14c.012-.064.021-.097.05-.187.11-.35.433-.49.419-.163a.287.287 0 01-.085.19c.052-.014.163-.066.253-.117.502-.302.304-1.043-.222-.819zM7.646 2.712c.22.001.6.004.783.002l.001-.099c-.134-.001-.65.002-.783.002l-.001.095zm.064.22c-.079.086-.203.15-.203.15s.11.012.212.005a.55.55 0 00.22-.05c-.017.122-.018.24-.018.24a.685.685 0 00.066.274c.046.063.073.064.107-.004a.676.676 0 00.068-.27 1.204 1.204 0 00-.028-.238c.07.03.115.038.22.048.109.01.208.005.208.005s-.146-.073-.21-.163c-.064-.089-.05-.074-.096-.188-.056-.003-.34 0-.43 0-.05.104-.054.126-.115.191zm-.4-1.467c.272.117.437.441.526.888.017.083.02.113.029.207h-.14a1.572 1.572 0 00-.05-.187c-.11-.348-.433-.488-.419-.162.005.09.043.14.085.19a1.347 1.347 0 01-.253-.117c-.502-.302-.304-1.043.222-.819zm5.544-.898c-.192.317-.215.571-.084 1.01.063.205.133.51.162.676.039.234.035.257.04.308h.21c.008-.082.014-.175.031-.304.02-.15.08-.463.145-.68.128-.436.12-.703-.08-1.005-.073-.113-.17-.205-.214-.205-.044 0-.143.085-.21.2zm.946.898c-.272.117-.436.441-.526.888-.017.084-.02.113-.029.208h.14c.013-.064.021-.097.05-.187.11-.35.433-.49.419-.163a.287.287 0 01-.085.19 1.35 1.35 0 00.253-.117c.502-.302.304-1.043-.222-.819zm-1.114 1.247c.22.001.6.004.783.002l.001-.099c-.134-.001-.649.002-.783.002l-.001.095zm.064.22c-.079.086-.203.15-.203.15s.11.012.212.005a.549.549 0 00.22-.05c-.017.122-.018.24-.018.24a.686.686 0 00.066.274c.046.063.073.064.107-.004a.675.675 0 00.068-.27 1.203 1.203 0 00-.028-.238c.07.03.115.038.22.048.109.01.208.005.208.005s-.146-.073-.21-.163c-.063-.089-.05-.074-.096-.188-.056-.003-.34 0-.43 0-.05.104-.054.126-.115.191zm-.4-1.467c.273.117.437.441.526.888.017.083.02.113.029.207h-.14a1.545 1.545 0 00-.05-.187c-.11-.348-.433-.488-.419-.162.005.09.043.14.086.19a1.348 1.348 0 01-.254-.117c-.502-.302-.304-1.043.222-.819z"/><path fill="green" d="M5.695 6.617c.105.05.24.088.308.09.08.003.06-.017-.09-.075a1.579 1.579 0 01-.321-.171c-.112-.092-.112-.092-.1-.011.006.046.09.117.203.167zm-2.438-.143c-.083.063-.078.068.102.04A4.82 4.82 0 003.7 6.45c.127-.034.117-.04-.102-.044-.146-.005-.283.024-.341.068z"/><path fill="green" d="M2.047 5.962c.804.146 2.415.687 2.318.78-.024.024-.477-.088-.54-.132-.025-.024-.263-.015-.526.02-.492.053-.575.097-.565.297.005.097.005.097.03 0 .043-.18.116-.22.394-.22.301 0 1.13.122 1.494.22.487.136.502.136.341.049-.21-.117-.526-.332-.584-.395-.107-.122-2.05-.658-2.332-.649-.132.01-.137.01-.03.03zm2.852.56c.038.068.418.259.447.23.015-.015-.029-.054-.087-.088a.777.777 0 01-.18-.127c-.078-.073-.224-.088-.18-.015z"/><path fill="green" d="M4.928 6.985c.039.069.419.259.448.23.014-.015-.03-.054-.088-.088A.778.778 0 015.108 7c-.078-.073-.224-.088-.18-.015zm-.544-.58c.007-.007.116.03.246.08s.298.098.37.103c.127.006.578.22.574.272 0 .048-.683-.16-.921-.281-.287-.143-.294-.15-.27-.174z"/><path fill="green" d="M5.19 6.761a.495.495 0 00-.21.144c-.034.054-.006.055.111-.004a.989.989 0 01.298-.09c.136-.007.136-.007.05-.061-.05-.031-.156-.028-.249.011zM2.911 5.118c.151.288.765.95 1.106 1.204a.966.966 0 00.36.151l.19.03-.141-.156a6.338 6.338 0 01-.692-.936c-.122-.23-.136-.17-.034.122.039.117.195.35.346.516.15.17.248.312.224.312-.064 0-.473-.482-.765-.902-.316-.458-.33-.472-.243-.219.044.122.141.302.224.4.078.102.126.185.102.185-.049 0-.263-.244-.53-.595-.074-.102-.176-.234-.22-.292-.048-.064-.014.02.073.18zm7.363 3.765c.158.068.979.276 1.559.446.58.17 1.259.366 1.41.387.214-.469-.177.408.046-.123-.29-.074-1.432-.343-1.89-.475-.396-.111-.957-.284-1.1-.316-.144-.031-.146.028-.025.08z"/><path fill="green" d="M10.374 8.761c.16.063.988.242 1.574.391.586.15 1.27.322 1.422.338.198-.476-.162.414.042-.125-.292-.063-1.443-.293-1.906-.408-.399-.097-.965-.25-1.11-.277-.145-.027-.145.033-.022.081zm-.227.21c.155.077.963.327 1.534.527.57.2 1.238.432 1.387.46.239-.456-.197.399.053-.12-.285-.089-1.412-.418-1.863-.573-.39-.132-.94-.334-1.082-.373-.142-.039-.147.02-.029.08z"/><path fill="green" d="M10.049 9.071c.15.085.944.377 1.504.607.56.23 1.213.496 1.36.532.263-.443-.217.387.06-.118-.28-.103-1.389-.49-1.83-.67-.382-.151-.922-.382-1.062-.428-.139-.047-.147.012-.032.077z"/><path fill="green" d="M9.956 9.197c.147.09.93.41 1.482.659.55.249 1.196.538 1.341.58.278-.435-.23.379.064-.116-.277-.114-1.37-.54-1.806-.734-.377-.165-.908-.414-1.046-.465-.137-.052-.148.007-.035.076z"/><path fill="#FCDD09" d="M8.314 10.46c.226.158.474.123.378-.093l-.056-.125.177.077c.254.107.49.021.35-.17l-.08-.111.19.038c.27.053.483-.08.307-.238l-.102-.093.194-.001c.275-.006.455-.18.251-.298l-.12-.069.19-.042c.268-.062.408-.27.184-.343l-.13-.043.175-.08c.25-.117.344-.35.109-.375l-.137-.014.156-.115c.22-.167.263-.414.028-.389l-.136.014.128-.145c.18-.208.171-.459-.053-.386l-.13.043.095-.17c.133-.24.072-.484-.132-.366l-.12.069.059-.185c.08-.264-.03-.49-.205-.331l-.102.092.018-.193c.024-.275-.13-.472-.27-.281l-.08.111-.022-.193c-.034-.273-.226-.434-.322-.219l-.056.126-.061-.184c-.09-.26-.312-.378-.36-.147l-.03.135-.098-.168c-.142-.236-.383-.305-.383-.068v.137l-.13-.143c-.19-.201-.439-.218-.39.013l.029.134-.158-.113c-.226-.157-.474-.122-.378.094l.056.125-.178-.077c-.254-.107-.489-.021-.35.17l.08.111-.19-.039c-.27-.052-.482.081-.307.24l.102.092-.193.001c-.276.006-.456.18-.251.298l.119.069-.19.042c-.268.062-.408.27-.183.343l.13.043-.176.08c-.25.117-.343.35-.108.374l.136.015-.156.115c-.22.167-.262.414-.028.389l.137-.014-.129.145c-.18.208-.17.459.053.386l.131-.043-.095.17c-.133.24-.072.484.132.366l.119-.069-.058.185c-.08.264.03.49.205.331L6 9.408l-.019.193c-.023.275.131.472.27.281l.08-.111.023.193c.034.274.226.434.322.219l.056-.126.06.184c.091.26.312.378.361.147l.029-.135.098.168c.143.236.383.305.383.069v-.138l.131.143c.189.201.438.218.39-.012l-.03-.135.159.112z"/></svg>
